wp-content/themes/KOOEN/assets/img/common/apply_anchor.svg

<svg width="53" height="25" viewBox="0 0 53 25" fill="none" xmlns="http://www.w3.org/2000/svg">
<path d="M9.216 19L8.184 14.752H2.952L1.872 19H0.168L4.488 2.008H6.768L10.968 19H9.216ZM5.64 3.52H5.544L3.192 13.408H7.944L5.64 3.52ZM22.3888 13.072C22.3888 14 22.3088 14.848 22.1488 15.616C21.9888 16.384 21.7488 17.048 21.4288 17.608C21.1088 18.168 20.7168 18.608 20.2528 18.928C19.7888 19.232 19.2448 19.384 18.6208 19.384C17.9008 19.384 17.2928 19.16 16.7968 18.712C16.3168 18.264 15.9808 17.68 15.7888 16.96H15.7648V24.76H14.1808V7.096H15.7168V9.232H15.7648C15.9568 8.496 16.2768 7.896 16.7248 7.432C17.1728 6.952 17.8048 6.712 18.6208 6.712C19.2128 6.712 19.7408 6.872 20.2048 7.192C20.6848 7.512 21.0848 7.952 21.4048 8.512C21.7248 9.072 21.9648 9.744 22.1248 10.528C22.3008 11.296 22.3888 12.144 22.3888 13.072ZM20.7568 13.024C20.7568 12.336 20.7088 11.696 20.6128 11.104C20.5168 10.496 20.3648 9.968 20.1568 9.52C19.9488 9.072 19.6848 8.72 19.3648 8.464C19.0608 8.208 18.6928 8.08 18.2608 8.08C17.8288 8.08 17.4528 8.208 17.1328 8.464C16.8288 8.72 16.5648 9.072 16.3408 9.52C16.1328 9.968 15.9728 10.496 15.8608 11.104C15.7648 11.696 15.7168 12.336 15.7168 13.024C15.7168 13.728 15.7648 14.384 15.8608 14.992C15.9728 15.6 16.1328 16.128 16.3408 16.576C16.5648 17.008 16.8368 17.352 17.1568 17.608C17.4768 17.864 17.8448 17.992 18.2608 17.992C18.6928 17.992 19.0608 17.864 19.3648 17.608C19.6848 17.352 19.9488 17.008 20.1568 16.576C20.3648 16.128 20.5168 15.6 20.6128 14.992C20.7088 14.384 20.7568 13.728 20.7568 13.024ZM34.7685 13.072C34.7685 14 34.6885 14.848 34.5285 15.616C34.3685 16.384 34.1285 17.048 33.8085 17.608C33.4885 18.168 33.0965 18.608 32.6325 18.928C32.1685 19.232 31.6245 19.384 31.0005 19.384C30.2805 19.384 29.6725 19.16 29.1765 18.712C28.6965 18.264 28.3605 17.68 28.1685 16.96H28.1445V24.76H26.5605V7.096H28.0965V9.232H28.1445C28.3365 8.496 28.6565 7.896 29.1045 7.432C29.5525 6.952 30.1845 6.712 31.0005 6.712C31.5925 6.712 32.1205 6.872 32.5845 7.192C33.0645 7.512 33.4645 7.952 33.7845 8.512C34.1045 9.072 34.3445 9.744 34.5045 10.528C34.6805 11.296 34.7685 12.144 34.7685 13.072ZM33.1365 13.024C33.1365 12.336 33.0885 11.696 32.9925 11.104C32.8965 10.496 32.7445 9.968 32.5365 9.52C32.3285 9.072 32.0645 8.72 31.7445 8.464C31.4405 8.208 31.0725 8.08 30.6405 8.08C30.2085 8.08 29.8325 8.208 29.5125 8.464C29.2085 8.72 28.9445 9.072 28.7205 9.52C28.5125 9.968 28.3525 10.496 28.2405 11.104C28.1445 11.696 28.0965 12.336 28.0965 13.024C28.0965 13.728 28.1445 14.384 28.2405 14.992C28.3525 15.6 28.5125 16.128 28.7205 16.576C28.9445 17.008 29.2165 17.352 29.5365 17.608C29.8565 17.864 30.2245 17.992 30.6405 17.992C31.0725 17.992 31.4405 17.864 31.7445 17.608C32.0645 17.352 32.3285 17.008 32.5365 16.576C32.7445 16.128 32.8965 15.6 32.9925 14.992C33.0885 14.384 33.1365 13.728 33.1365 13.024ZM38.9402 19V0.855999H40.5242V19H38.9402ZM48.4136 21.52C48.2856 22.032 48.1336 22.488 47.9576 22.888C47.7976 23.288 47.5976 23.624 47.3576 23.896C47.1176 24.168 46.8376 24.376 46.5176 24.52C46.2136 24.68 45.8456 24.76 45.4136 24.76C45.1896 24.76 44.9656 24.736 44.7416 24.688C44.5176 24.656 44.3336 24.616 44.1896 24.568L44.4056 23.152C44.5176 23.184 44.6536 23.216 44.8136 23.248C44.9736 23.28 45.1336 23.296 45.2936 23.296C45.7576 23.296 46.1016 23.136 46.3256 22.816C46.5656 22.496 46.7576 22.056 46.9016 21.496L47.4296 19.432L43.9736 7.096H45.6536L48.2216 17.152H48.2696L50.5496 7.096H52.1576L48.4136 21.52Z" fill="url(#paint0_linear)"/>
<defs>
<linearGradient id="paint0_linear" x1="0.00187256" y1="11.4908" x2="53.0061" y2="11.4908" gradientUnits="userSpaceOnUse">
<stop stop-color="#00A99D"/>
<stop offset="9.65257e-08" stop-color="#00A99D"/>
<stop offset="0.9996" stop-color="#00D47F"/>
<stop offset="1" stop-color="#00D47F"/>
</linearGradient>
</defs>
</svg>

<svg fill="none" height="25" viewBox="0 0 53 25" width="53" xmlns="http://www.w3.org/2000/svg" xmlns:xlink="http://www.w3.org/1999/xlink"><linearGradient id="a" gradientUnits="userSpaceOnUse" x1=".001873" x2="53.0061" y1="11.4908" y2="11.4908"><stop offset="0" stop-color="#00a99d"/><stop offset=".00000009653" stop-color="#00a99d"/><stop offset=".9996" stop-color="#00d47f"/><stop offset="1" stop-color="#00d47f"/></linearGradient><path d="m9.216 19-1.032-4.248h-5.232l-1.08 4.248h-1.704l4.32-16.992h2.28l4.2 16.992zm-3.576-15.48h-.096l-2.352 9.888h4.752zm16.7488 9.552c0 .928-.08 1.776-.24 2.544s-.4 1.432-.72 1.992-.712 1-1.176 1.32c-.464.304-1.008.456-1.632.456-.72 0-1.328-.224-1.824-.672-.48-.448-.816-1.032-1.008-1.752h-.024v7.8h-1.584v-17.664h1.536v2.136h.048c.192-.736.512-1.336.96-1.8.448-.48 1.08-.72 1.896-.72.592 0 1.12.16 1.584.48.48.32.88.76 1.2 1.32s.56 1.232.72 2.016c.176.768.264 1.616.264 2.544zm-1.632-.048c0-.688-.048-1.328-.144-1.92-.096-.608-.248-1.136-.456-1.584s-.472-.8-.792-1.056c-.304-.256-.672-.384-1.104-.384s-.808.128-1.128.384c-.304.256-.568.608-.792 1.056-.208.448-.368.976-.48 1.584-.096.592-.144 1.232-.144 1.92 0 .704.048 1.36.144 1.968.112.608.272 1.136.48 1.584.224.432.496.776.816 1.032s.688.384 1.104.384c.432 0 .8-.128 1.104-.384.32-.256.584-.6.792-1.032.208-.448.36-.976.456-1.584s.144-1.264.144-1.968zm14.0117.048c0 .928-.08 1.776-.24 2.544s-.4 1.432-.72 1.992-.712 1-1.176 1.32c-.464.304-1.008.456-1.632.456-.72 0-1.328-.224-1.824-.672-.48-.448-.816-1.032-1.008-1.752h-.024v7.8h-1.584v-17.664h1.536v2.136h.048c.192-.736.512-1.336.96-1.8.448-.48 1.08-.72 1.896-.72.592 0 1.12.16 1.584.48.48.32.88.76 1.2 1.32s.56 1.232.72 2.016c.176.768.264 1.616.264 2.544zm-1.632-.048c0-.688-.048-1.328-.144-1.92-.096-.608-.248-1.136-.456-1.584s-.472-.8-.792-1.056c-.304-.256-.672-.384-1.104-.384s-.808.128-1.128.384c-.304.256-.568.608-.792 1.056-.208.448-.368.976-.48 1.584-.096.592-.144 1.232-.144 1.92 0 .704.048 1.36.144 1.968.112.608.272 1.136.48 1.584.224.432.496.776.816 1.032s.688.384 1.104.384c.432 0 .8-.128 1.104-.384.32-.256.584-.6.792-1.032.208-.448.36-.976.456-1.584s.144-1.264.144-1.968zm5.8037 5.976v-18.144001h1.584v18.144001zm9.4734 2.52c-.128.512-.28.968-.456 1.368-.16.4-.36.736-.6 1.008s-.52.48-.84.624c-.304.16-.672.24-1.104.24-.224 0-.448-.024-.672-.072-.224-.032-.408-.072-.552-.12l.216-1.416c.112.032.248.064.408.096s.32.048.48.048c.464 0 .808-.16 1.032-.48.24-.32.432-.76.576-1.32l.528-2.064-3.456-12.336h1.68l2.568 10.056h.048l2.28-10.056h1.608z" fill="url(#a)"/></svg>
